X:3
T:Donkey Riding
S:Binghamton MM
A:Bledington
O:English
R:Reel
M:4/4
L:1/8
Q:1/4=108
P:A(AB)4
K:G
P:A
E2 G2 B2 BB | c2 A2 B2 BB | B2 A2 A2 GA | B2 A2 A2 F2 |
E2 G2 B2 BB | c2 A2 B2 BB | B2 G2 A2 F2 | E2 D2 E4 |] 
P:B
e2 e2 d2 B2 | c2 A2 B4 | B2 A2 A2 GA | B2 A2 A4 | 
e2 e2 d2 B2 | c2 A2 B4 | B2 G2 A2 F2 | E2 D2 E4 :|
